svg/remove-firewall.svg

<?xml version="1.0" encoding="UTF-8"?>
<svg xmlns="http://www.w3.org/2000/svg" xmlns:xlink="http://www.w3.org/1999/xlink" width="32" height="32" viewBox="0 0 32 32">
<defs>
<clipPath id="clip-0">
<path clip-rule="nonzero" d="M 1.25 5 L 30.75 5 L 30.75 27 L 1.25 27 Z M 1.25 5 "/>
</clipPath>
<clipPath id="clip-1">
<path clip-rule="nonzero" d="M 0 32 L 0 0 L 32 0 L 32 32 Z M 7.300781 16.5 C 7.300781 21.144531 11.105469 24.949219 15.75 24.949219 C 20.394531 24.949219 24.199219 21.144531 24.199219 16.5 C 24.199219 11.855469 20.394531 8.050781 15.75 8.050781 C 11.105469 8.050781 7.300781 11.855469 7.300781 16.5 "/>
</clipPath>
</defs>
<g clip-path="url(#clip-0)">
<g clip-path="url(#clip-1)">
<path fill-rule="nonzero" fill="rgb(41.568627%, 41.568627%, 41.568627%)" fill-opacity="1" d="M 1.28125 5.121094 L 1.28125 11.519531 L 10.238281 11.519531 L 10.238281 5.121094 Z M 11.519531 5.121094 L 11.519531 11.519531 L 20.480469 11.519531 L 20.480469 5.121094 Z M 21.761719 5.121094 L 21.761719 11.519531 L 30.71875 11.519531 L 30.71875 5.121094 Z M 1.28125 12.800781 L 1.28125 19.199219 L 5.121094 19.199219 L 5.121094 12.800781 Z M 6.398438 12.800781 L 6.398438 19.199219 L 15.359375 19.199219 L 15.359375 12.800781 Z M 16.640625 12.800781 L 16.640625 19.199219 L 25.601562 19.199219 L 25.601562 12.800781 Z M 26.878906 12.800781 L 26.878906 19.199219 L 30.71875 19.199219 L 30.71875 12.800781 Z M 1.28125 20.480469 L 1.28125 26.878906 L 10.238281 26.878906 L 10.238281 20.480469 Z M 11.519531 20.480469 L 11.519531 26.878906 L 20.480469 26.878906 L 20.480469 20.480469 Z M 21.761719 20.480469 L 21.761719 26.878906 L 30.71875 26.878906 L 30.71875 20.480469 Z M 21.761719 20.480469 "/>
</g>
</g>
<path fill-rule="nonzero" fill="rgb(0%, 0%, 0%)" fill-opacity="1" d="M 15.75 9.460938 C 11.878906 9.460938 8.710938 12.628906 8.710938 16.5 C 8.710938 20.371094 11.878906 23.539062 15.75 23.539062 C 19.621094 23.539062 22.789062 20.371094 22.789062 16.5 C 22.789062 12.628906 19.621094 9.460938 15.75 9.460938 M 19.199219 17.203125 L 12.300781 17.203125 C 11.878906 17.203125 11.597656 16.921875 11.597656 16.5 C 11.597656 16.078125 11.878906 15.796875 12.300781 15.796875 L 19.269531 15.796875 C 19.691406 15.796875 19.972656 16.078125 19.972656 16.5 C 19.972656 16.921875 19.621094 17.203125 19.199219 17.203125 "/>
</svg>

<svg role="img" viewBox="0 0 32 32" height="32" width="32" xmlns="http://www.w3.org/2000/svg"><defs><clipPath id="204__202__96__94__341__339__177__175__248__246__341__339__182__180__421__419__499__497__338__336__remove-firewall_svg__svg/remove-firewall.svg985__svg/remove-firewall.svg981__clip-0"><path d="M1.25 5h29.5v22H1.25Zm0 0"/></clipPath><clipPath id="205__203__97__95__342__340__178__176__249__247__342__340__183__181__422__420__500__498__339__337__remove-firewall_svg__svg/remove-firewall.svg987__svg/remove-firewall.svg983__clip-1"><path d="M0 32V0h32v32Zm7.3-15.5c0 4.645 3.805 8.45 8.45 8.45s8.45-3.805 8.45-8.45-3.805-8.45-8.45-8.45S7.3 11.856 7.3 16.5"/></clipPath></defs><g clip-path="url(#204__202__96__94__341__339__177__175__248__246__341__339__182__180__421__419__499__497__338__336__remove-firewall_svg__svg/remove-firewall.svg985__svg/remove-firewall.svg981__clip-0)"><g clip-path="url(#205__203__97__95__342__340__178__176__249__247__342__340__183__181__422__420__500__498__339__337__remove-firewall_svg__svg/remove-firewall.svg987__svg/remove-firewall.svg983__clip-1)"><path d="M1.281 5.121v6.399h8.957v-6.4Zm10.239 0v6.399h8.96v-6.4Zm10.242 0v6.399h8.957v-6.4Zm-20.48 7.68v6.398h3.84v-6.398Zm5.116 0v6.398h8.961v-6.398Zm10.243 0v6.398h8.96v-6.398Zm10.238 0v6.398h3.84v-6.398ZM1.28 20.48v6.398h8.957V20.48Zm10.239 0v6.398h8.96V20.48Zm10.242 0v6.398h8.957V20.48Zm0 0" fill="rgb(41.568627%, 41.568627%, 41.568627%)"/></g></g><path d="M15.75 9.46c-3.871 0-7.04 3.169-7.04 7.04s3.169 7.04 7.04 7.04 7.04-3.169 7.04-7.04-3.169-7.04-7.04-7.04m3.45 7.743h-6.9c-.421 0-.702-.281-.702-.703 0-.422.28-.703.703-.703h6.969c.421 0 .703.281.703.703 0 .422-.352.703-.774.703"/></svg>
